X: 2428
T: The CAMP MEETING
R: Jig.
B: Kerr's v.2 p.49 #428
Z: 2016 John Chambers <jc:trillian.mit.edu>
M: C
L: 1/8
K: A
E2 !segno!|:\
(3AAA A2 zBG>B | zAd>f "^>"e4 |\
[1 (3fff f2 f>ed>f | zec>A B>AF>E :|\
[2 (3fff f2 zed>f | zdB>G A3 ||
|: A |\
A>AG>E CA, zA | A>AG>E CA, zA |\
A>AG>E C>DE>F | G>EF>D CA,z \
:: A, |\
_B,4 A,)z A2 | zAFD ED zA, |
(_B,4 A,)z A2 | zAG>E CA,z :|\
A, |\
A,2 {G}A2 zACA | A,2 {G}A2 zACA |\
=G,2 {F}=G2 zGB,G | =G,2 {F}=G2 zGB,G |
A,A zA CAB,A | A,A zA CAB,A |\
=G,=G zG B,GA,G | =G,=G zG B,GA,^G ||
A^gae cABG | Agae cABG |\
Af{a}=ge dB=GB | Af{a}=ge dB=GB |
A>a (3aaa caBa | A>a (3aaa caBa |\
=G>=g (3ggg BgAg | =G>=g (3ggg Bg"_D.C."Gg !segno!|]

